svgs/sharp-light/sensor-triangle-exclamation.svg

<svg xmlns="http://www.w3.org/2000/svg" viewBox="0 0 640 512"><!--! Font Awesome Pro 6.6.0 by @fontawesome - https://fontawesome.com License - https://fontawesome.com/license (Commercial License) Copyright 2024 Fonticons, Inc. --><path d="M32 64l384 0 0 87.8 32-58.7L448 64l0-32-32 0L32 32 0 32 0 64 0 448l0 32 32 0 205 0 17.5-32L32 448 32 64zm96 80l0-16-32 0 0 16 0 128 0 16 32 0 0-16 0-128zm64 0l0-16-32 0 0 16 0 128 0 16 32 0 0-16 0-128zm64 368l36.5 0 311.1 0 36.5 0-17.5-32L466.2 193.4 448 160l-18.2 33.4L273.5 480 256 512zm330.1-32l-276.2 0L448 226.8 586.1 480zM464 320l0-16-32 0 0 16 0 64 0 16 32 0 0-16 0-64zm-32 96l0 32 32 0 0-32-32 0z"/></svg>

<svg xmlns="http://www.w3.org/2000/svg" viewBox="0 0 640 512"><!--! Font Awesome Pro 6.4.0 by @fontawesome - https://fontawesome.com License - https://fontawesome.com/license (Commercial License) Copyright 2023 Fonticons, Inc. --><path d="M32 64H416v87.8l32-58.7V64 32H416 32 0V64 448v32H32 237l17.5-32H32V64zm96 80V128H96v16V272v16h32V272 144zm64 0V128H160v16V272v16h32V272 144zm64 368h36.5H603.5 640l-17.5-32L466.2 193.4 448 160l-18.2 33.4L273.5 480 256 512zm330.1-32H309.9L448 226.8 586.1 480zM464 320V304H432v16 64 16h32V384 320zm-32 96v32h32V416H432z"/></svg>
